X:155
T:Myrtle Grove. VWMLa.155
%%VWML:Anon2-3049-p95-0
F:http://www.vwml.org/record/Anon2/3049/p95
S:Anon. MS, late 18thC, Vaughan Williams Mem. Library
O:England;Yorkshire
Z:vmp/efdss.Simon Wilson. Reviewed PJH 2008.
M:6/8
L:1/8
Q:3/8=120
K:Bb
F|B2B ded|f3b2f|gbg gbg|e2ed2F|\
B2B ded|f3b2b|agf {a}gf=e|f3-f2:|
|:"P"f|g>ab bag|f2ed2d|e>fg gfe|d2cB2"^F"F|\
B2B ded|f3bag|fed cBA|([D3B3][D2B2]):|
|:B,|[G,E][G,E][G,E] [B,F][B,F][B,F]|\
[G,E][G,E][G,E] [B,F][B,F][B,F]|\
[G,E]"^F"e2-e2c|(c3B2)"P"B,|\
[G,E][G,E][G,E] [B,F][B,F][B,F]|\
[G,E]"^F"e2-e2c|B_AG FED|([G,3E3][G,2E]):|
